packages/example/src/components/WalletList/image/BlueCard.svg

<svg fill="none" height="135" viewBox="0 0 240 135" width="240" xmlns="http://www.w3.org/2000/svg" xmlns:xlink="http://www.w3.org/1999/xlink"><linearGradient id="a" gradientUnits="userSpaceOnUse" x1="240" x2="-.000002" y1="135" y2=".000004"><stop offset="0" stop-color="#2d5de0"/><stop offset="1" stop-color="#437ff5"/></linearGradient><radialGradient id="b" cx="0" cy="0" gradientTransform="matrix(120.00039899 68.00027518 -120.88872075 213.33288263 0 0)" gradientUnits="userSpaceOnUse" r="1"><stop offset="0" stop-color="#fff"/><stop offset="1" stop-color="#fff" stop-opacity="0"/></radialGradient><linearGradient id="c" gradientUnits="userSpaceOnUse" x1="168.5" x2="278.052" y1="23" y2="159.02"><stop offset="0" stop-color="#fff" stop-opacity="0"/><stop offset="1" stop-color="#b4bacc"/></linearGradient><linearGradient id="d" gradientUnits="userSpaceOnUse" x1="200" x2="220.93" y1="96" y2="111.222"><stop offset="0" stop-color="#fff"/><stop offset="1" stop-color="#fff" stop-opacity=".6"/></linearGradient><clipPath id="e"><path d="m0 0h240v135h-240z"/></clipPath><g clip-path="url(#e)"><path d="m0 0h240v135h-240z" fill="url(#a)"/><path d="m0 0h240v135h-240z" fill="url(#b)" fill-opacity=".12"/><path d="m180.255 93.9124-.098.8376h.843 51.472l-72.411 93.652 7.684-65.314.098-.838h-.843-51.472l72.411-93.6518z" stroke="url(#c)" stroke-opacity=".2" stroke-width="1.5"/><path d="m209 105h7l-9 13v-9h-7l9-13z" fill="url(#d)"/></g></svg>

<svg width="240" height="135" viewBox="0 0 240 135" fill="none" xmlns="http://www.w3.org/2000/svg">
<g clip-path="url(#clip0_2679_14024)">
<rect width="240" height="135" fill="url(#paint0_linear_2679_14024)"/>
<rect width="240" height="135" fill="url(#paint1_radial_2679_14024)" fill-opacity="0.12"/>
<path d="M180.255 93.9124L180.157 94.75H181H232.472L160.061 188.402L167.745 123.088L167.843 122.25H167H115.528L187.939 28.5982L180.255 93.9124Z" stroke="url(#paint2_linear_2679_14024)" stroke-opacity="0.2" stroke-width="1.5"/>
<path d="M209 105H216L207 118V109H200L209 96V105Z" fill="url(#paint3_linear_2679_14024)"/>
</g>
<defs>
<linearGradient id="paint0_linear_2679_14024" x1="240" y1="135" x2="-2.12342e-06" y2="3.77496e-06" gradientUnits="userSpaceOnUse">
<stop stop-color="#2D5DE0"/>
<stop offset="1" stop-color="#437FF5"/>
</linearGradient>
<radialGradient id="paint1_radial_2679_14024" cx="0" cy="0" r="1" gradientUnits="userSpaceOnUse" gradientTransform="rotate(29.5388) scale(137.928 245.204)">
<stop stop-color="white"/>
<stop offset="1" stop-color="white" stop-opacity="0"/>
</radialGradient>
<linearGradient id="paint2_linear_2679_14024" x1="168.5" y1="23" x2="278.052" y2="159.02" gradientUnits="userSpaceOnUse">
<stop stop-color="white" stop-opacity="0"/>
<stop offset="1" stop-color="#B4BACC"/>
</linearGradient>
<linearGradient id="paint3_linear_2679_14024" x1="200" y1="96" x2="220.93" y2="111.222" gradientUnits="userSpaceOnUse">
<stop stop-color="white"/>
<stop offset="1" stop-color="white" stop-opacity="0.6"/>
</linearGradient>
<clipPath id="clip0_2679_14024">
<rect width="240" height="135" fill="white"/>
</clipPath>
</defs>
</svg>
